X:1
T:50
T:50
T:Études enfantines op. 37
T:Henry Lemoine
C:Henry Lemoine
%%score { 1 | ( 2 3 ) }
L:1/8
Q:1/4=100
M:2/4
K:Eb
V:1 treble nm="Piano" snm="Pno."
V:2 bass 
V:3 bass 
V:1
"^Allegretto quasi allegro"!ff! (3z/!8va(! (!4!b'/=a'/ (3c''/b'/_a'/ (3g'/!1!f'/!3!e'/!8va)! (3d'/e'/c'/) | %1
 (3(!4!c'/b/=a/ (3c'/b/a/ (3c'/b/a/ (3c'/b/_a/ | %2
 (3(g/)a/b/ (3!1!c'/!3!d'/e'/) (3z/ (!1!f/g/ (3a/b/!5!c'/) | %3
 (3z/ (!2!e/!1!f/ (3g/a/!1!=a/ (3b/!1!c'/d'/ (3e'/!1!f'/!2!^f'/ | %4
!8va(! (3(!1!g'/)!4!b'/=a'/ (3c''/b'/_a'/ (3g'/!1!f'/!3!e'/!8va)! (3d'/e'/c'/) | %5
 (3(!4!c'/b/=a/ (3c'/b/a/ (3c'/b/a/ (3c'/b/_a/) | %6
 (3(g/a/b/ (3!1!c'/!3!d'/e'/) (3z/ (!1!f/g/ (3a/b/!5!c'/) | (3z/ (!1!A/B/ (3!1!=B/c/d/ .e) z || %8
!f! !3![df]3 [ef] | [df]3 [ef] | (3[df]/ (!3!f/=e/ (3f/g/f/ (3_e/!4!f/e/ (3d/!4!e/d/ | %11
 (3c/!4!d/c/ (3B/!4!c/B/ (3=A/!4!B/A/ (3G/!3!A/G/ | (3F/)(G/=A/ (3B/!1!c/d/ (3e/d/e/ (3g/f/e/ | %13
 (3d/e/!1!f/ (3g/=a/b/) (3z/ (!1!c/d/ (3e/f/g/) | %14
 (3z/ (!1!F/^F/ (3!1!G/!2!A/!3!=A/ .B)!p! (3(!3!b/=a/c'/ | %15
"_poco rallentando" .b)!8va(! (3(b'/=a'/c''/ .b') (3(b'/a'/c''/)!8va)! | %16
!ff! (3z/"^in tempo"!8va(! (!4!b'/=a'/(3c''/b'/_a'/ (3g'/!1!f'/!3!e'/(3d'/e'/c'/)!8va)! | %17
 (3(!4!c'/b/=a/ (3c'/b/a/ (3c'/b/a/ (3c'/b/_a/) | %18
 (3(g/a/b/ (3!1!c'/!3!d'/e'/) (3z/ (!1!f/g/ (3a/b/c'/) | %19
 (3z/!<(! (!2!e/!1!f/ (3g/a/!1!=a/ (3b/!1!c'/d'/ (3e'/!1!f'/!2!^f'/!<)! | %20
!ff!!8va(! (3(!1!g'/)!4!b'/=a'/ (3c''/b'/_a'/ (3g'/!1!f'/!3!e'/!8va)! (3d'/e'/c'/) | %21
 (3(!4!c'/b/=a/ (3c'/b/a/ (3c'/b/a/ (3c'/b/_a/) | %22
 (3(g/a/b/ (3!1!c'/!3!d'/e'/) (3z/ (!1!f/g/ (3a/b/!5!c'/) | (3z/ (A/B/ (3!1!=B/c/d/ .e) z |] %24
V:2
 .E, z[K:treble] .!4!!2!!1![B,EG] z |[K:bass] .D, z[K:treble] .!5!!2!!1![B,FA] z | %2
[K:bass] .E,[K:treble] .!4!!2!!1![B,EG] .A, .[CF] | (((!5!!2!!1![B,-EG]2 [B,DF]))) z | %4
[K:bass] .E, z[K:treble] .[B,EG] z |[K:bass] .D, z[K:treble] .[B,FA] z | %6
[K:bass] .E,[K:treble] .[B,EG] .A, .[CF] | z (!2!!1![F_A] .G) z || %8
[K:bass] (3z/ (!3!B,,/C,/ (3D,/!3!E,/=E,/ (3!1!F,/!2!G,/!4!E,/ (3F,/G,/=A,/ | %9
 (3!2!B,/)[K:treble] (!3!B,/C/ (3D/!3!E/=E/ (3!1!F/!2!G/!4!E/ (3F/G/=A/ | %10
 .!2!B) .!3!!1![=Ac] .!4!!2![GB] .!3!!1![F_A] | .!4!!2![EG] .!3!!1![DF] .!4!!2![CE] .!3!!1![B,D] | %12
 (!4!!2![=A,C]4 | .[B,D]) z[K:bass] .[E,G,C] z | (!>![F,CE]2 .[B,D]) z | z4 | %16
[K:bass] .E, z[K:treble] .[B,EG] z |[K:bass] .D, z[K:treble] .[B,FA] z | %18
[K:bass] .E,[K:treble] .[B,EG] .A, .[CF] | ((([B,-EG]2 [B,DF]))) z | %20
[K:bass] .E, z[K:treble] .[B,EG] z |[K:bass] .D, z[K:treble] .[B,FA] z | %22
[K:bass] .E,[K:treble] .[B,EG] .A, .[CF] | z ([F_A] .G) z |] %24
V:3
 x2[K:treble] x2 |[K:bass] x2[K:treble] x2 |[K:bass] x[K:treble] x3 | x4 | %4
[K:bass] x2[K:treble] x2 |[K:bass] x2[K:treble] x2 |[K:bass] x[K:treble] x3 | (B,2 .E) z || %8
[K:bass] x4 | x/3[K:treble] x11/3 | x4 | x4 | x4 | x2[K:bass] x2 | x4 | x4 | %16
[K:bass] x2[K:treble] x2 |[K:bass] x2[K:treble] x2 |[K:bass] x[K:treble] x3 | x4 | %20
[K:bass] x2[K:treble] x2 |[K:bass] x2[K:treble] x2 |[K:bass] x[K:treble] x3 | (!5!B,2 .E) z |] %24

